X: 11
T: Jenny Dang The Weaver
C: Reverend Alexander Garden
Z: Aberfoyle Whistler
S: https://thesession.org/tunes/380#setting48989
R: reel
M: 4/4
L: 1/8
K: Dmaj
|:d ~A3 AFAB|d ~A3 f2ef|d ~B3 BAB/c/d|ABde faef:|
|:d2fd efge|defd e2dB|d2fd efge|1 a ~A3 f2 ef:|2 aAAg AAfA||

